X: 1222
T: Annabella
B: australian traditional tunes wiki
M:3/4
L:1/8
R: Waltz
Q: 1/4=100
K:F
V:1 
AG|"F"A2C2F2|A4AA|"C"G2C2E2|G6|"F"c2c3c|"C7"B2A2G2|"F"A6-|A4AG|
A2C2F2|A4AA|"C"G2C2E2|G4A2|"F"c3dc2|"C7"B2A2G2|"F"F6-|F4C2|
F2F2F2|F2G2F2|"C"F2E3D|E6|E2E2E2|E2F2E2|"Bb"D4C2|"C"C6|
"F"F2F2F2|F2G2A2|"C7"c2B2G2|"Bb"D3DD2|"C"C2E2F2|G2A2G2|"F"F6-|F4||
% abcbook-tune_id 6342d53aaee3316f6a096992


% abcbook-boost 0
% abcbook-tablature 
% abcbook-transpose 
% abcbook-lastupdated 1665324354822
% abcbook-soundfonts 
% abcbook-repeats 1
% NFF Book 2020

